static/images/icon_title_products.svg

<svg fill="none" height="42" viewBox="0 0 77 42" width="77" xmlns="http://www.w3.org/2000/svg"><path d="m56.8494 4.21722h-37.0453c-2.6878 0-4.8744 2.09132-4.8744 4.66188v24.2417c0 2.5706 2.1866 4.6619 4.8744 4.6619h37.0453c2.6878 0 4.8744-2.0913 4.8744-4.6619v-24.2417c0-2.57056-2.1866-4.66188-4.8744-4.66188zm-4.8743 1.86475v29.83593h-27.2966v-29.83593zm-35.0957 27.03883v-24.2417c0-1.54215 1.3122-2.79713 2.9247-2.79713h2.9246v29.83593h-2.9246c-1.6125 0-2.9247-1.2549-2.9247-2.7971zm42.8947 0c0 1.5422-1.3122 2.7971-2.9247 2.7971h-2.9246v-29.83593h2.9246c1.6125 0 2.9247 1.25498 2.9247 2.79713z" fill="#000"/><g fill="#f7931e"><path d="m57.8248 20.0676h-1.9498v1.8647h1.9498z"/><path d="m33.7396 14.7469-5.849 5.594 1.3787 1.3185 5.849-5.594z"/><path d="m37.6369 11.0172-1.9494 1.8645 1.3787 1.3185 1.9494-1.8644z"/><path d="m47.3881 20.3411-5.849 5.594 1.3786 1.3186 5.8491-5.594z"/><path d="m39.5901 27.7997-1.9495 1.8645 1.3787 1.3185 1.9494-1.8644z"/><path d="m45.4335 12.8822-15.5976 14.9176 1.3787 1.3186 15.5976-14.9176z"/></g></svg>

<svg width="77" height="42" viewBox="0 0 77 42" fill="none" xmlns="http://www.w3.org/2000/svg">
<path d="M56.8494 4.21722H19.8041C17.1163 4.21722 14.9297 6.30854 14.9297 8.8791V33.1208C14.9297 35.6914 17.1163 37.7827 19.8041 37.7827H56.8494C59.5372 37.7827 61.7238 35.6914 61.7238 33.1208V8.8791C61.7238 6.30854 59.5372 4.21722 56.8494 4.21722ZM51.9751 6.08197V35.9179H24.6785V6.08197H51.9751ZM16.8794 33.1208V8.8791C16.8794 7.33695 18.1916 6.08197 19.8041 6.08197H22.7287V35.9179H19.8041C18.1916 35.9179 16.8794 34.663 16.8794 33.1208ZM59.7741 33.1208C59.7741 34.663 58.4619 35.9179 56.8494 35.9179H53.9248V6.08197H56.8494C58.4619 6.08197 59.7741 7.33695 59.7741 8.8791V33.1208Z" fill="black"/>
<path d="M57.8248 20.0676H55.875V21.9323H57.8248V20.0676Z" fill="#F7931E"/>
<path d="M33.7396 14.7469L27.8906 20.3409L29.2693 21.6594L35.1183 16.0654L33.7396 14.7469Z" fill="#F7931E"/>
<path d="M37.6369 11.0172L35.6875 12.8817L37.0662 14.2002L39.0156 12.3358L37.6369 11.0172Z" fill="#F7931E"/>
<path d="M47.3881 20.3411L41.5391 25.9351L42.9177 27.2537L48.7668 21.6597L47.3881 20.3411Z" fill="#F7931E"/>
<path d="M39.5901 27.7997L37.6406 29.6642L39.0193 30.9827L40.9687 29.1183L39.5901 27.7997Z" fill="#F7931E"/>
<path d="M45.4335 12.8822L29.8359 27.7998L31.2146 29.1184L46.8122 14.2008L45.4335 12.8822Z" fill="#F7931E"/>
</svg>
